!!!OTL: BET KINDCHEN BET
!!!ARE: Europa, Mitteleuropa, Deutschland, Schwaben; Rheinland
!!!SCT: E1913
!!!YEM: Copyright 1995, estate of Helmut Schaffrath.
**kern
*ICvox
*Ivox
*M2/4
*k[b-]
*F:
=1
{4a
8g
8g
=2
4f
4r}
=3
{8a
8a
8g
8g
=4
4f
4r}
=5
{8cc
8cc
8cc
8cc
=6
8dd
8dd
4dd}
=7
{8b-
8b-
8b-
8b-
=8
8cc
8cc
4cc}
=9
{4a
8g
8g
=10
4f
4r}
==
!!!AGN: Kinder - Lied, religioes
!!!ONB: ESAC (Essen Associative Code) Database: ERK3
!!!AMT: simple duple
!!!AIN: vox
!!!EED: Helmut Schaffrath
!!!EEV: 1.0
*-
